X:90
T: Wallace's Cross
T: Crosaire de Bhail\'is
S: B.Breathnach:"Ceol Rince na hEireann" III/69
Z: B.Black
L: 1/8
M: 2/4
Q: 275
R: polka
K: D
ef/e/ dB|BA cd|e/f/e dB|BA A2|
ef/e/ dB|BA ce|aa ge|ed d2 :|
f2 fd|cd ef|gg/f/ gf|ed Ad|
f2 fd|cd ef|a>a ge|ed d2 :|
